X: 14419
T: Galway Rambler, The
R: reel
M: 4/4
K: Gmajor
GB dB eBdB|GABG AGEF|GB dB eBde|gedB AGEF|
GB dB eBdB|GABG AGEF|GFGA BABd|gedB A2 Bd||
gfgb agab|gabg agef|gfgb agab|gedB A2 Bd|
gfgb agab|gabg ageg|bgag egde|gedB AGEF||

